X:1
T:Away to the Maypole
C:Trad C17
N:from The Westmentister Drollery 1692
M:6/8
L:1/8
K:C
C | C>DC c2 c | d>cB A2 A/A/ | G>AG G2 E | G3- | G2 E |
E2 A A>^GA | E2 A A2 A/B/ | c>BA B2 ^G | A3- | A2 G |
G>AG c2 B | A3- | A2 A | A>BA d2 c | B3- | B2 (c/d/) |
e2 c d2 B | (c>B)A G2 E | (G>A)B c2 E | D3- | D2 (c/d/) |
e2 c d2 B | (c>B)A G2 E | (F>G)A G2 B | c3- | c2 ||